!!!COM: Corelli, Arcangelo
!!!OTL: 
!!!ONM: Opus 5, No. 4
!!!OMV: 1
!!!CDT: 1653/2/17/-1713/1/8/
!!!OCY: Italia
**kern	**kern
*clefC	*clefG
*k[b-]	*k[b-]
*F:	*F:
*M4/4	*M4/4
=1	=1
4F	4ff
4E	8.ccc
.	16bb-
4F	8aa
.	8ff
4f	8r
.	16aa
.	16ff
=2	=2
4e	8gg
.	8cc
8d	8ff
8G	16gg
.	16ff
4c	4ee
4E	8r
.	16ccc
.	16gg
=3	=3
4F	8.aa
.	16gg
4D	8ff
.	8ff
4G	4bb
8E	8.ccc
8F	.
.	16ff
=4	=4
4G	4ee
4GG	4dd
4C	4cc
4BB-	8r
.	8cc
=5	=5
4AA	8ff
.	8aa
8r	8ff
8F	8ee
8B-	4dd
8d	.
8B-	8r
8A	8dd
=6	=6
4G	8gg
.	8bb-
8r	8gg
8G	8ff
8c	4ee
8e	.
8c	8r
8B-	8gg
=7	=7
4A	[4ccc
4E	16ccc]
.	16gg
.	16aa
.	16bb-
4F	[4aa
4C#	16aa]
.	16ee
.	16ff
.	16gg
=8	=8
4D	[4ff
8BB-	16ff]
.	16gg
8GG	16aa
.	16bb-
8AA	8cc#
8D	16dd
.	16ee
8A	8.ee
8AA	.
.	16dd
=9	=9
4D	4dd
8r	2ff
8A	.
8B-	.
8G	.
8c	8ee
8C	16ff
.	16gg
=10	=10
4F	8aa
.	8ff
8r	2cc
8E	.
8F	.
8D	.
8G	8b
8GG	16cc
.	16dd
=11	=11
4C	8ee
.	8cc
8r	4.ccc
8A	.
[4d	.
.	8ff
16d]	[4bb-
16G	.
16A	.
16B-	.
=12	=12
[4c	16bb-]
.	16ee
.	16ff
.	16gg
16c]	[4aa
16F	.
16G	.
16A	.
4B-	16aa]
.	16dd
.	16ee
.	16ff
4B	8gg
.	8ff
=13	=13
8c	8ee
8B-	8ccc
8A	8ff
8F	8aa
8B-	16dd
.	16ee
16A	8ff
16B-	.
8c	8.ff
8C	.
.	16ee
=14	=14
4F	8ff
.	8ccc
4E	8gg
.	8ccc
4D	8ff
.	8ccc
4C	8ee
.	8ccc
=15	=15
4BB-	8dd
.	8ee
8AA	4ff
8BB-	.
8C	8ff
8BB-	16gg
.	16aa
8C	8.ff
8CC	.
.	16ee
=16	=16
4FF	4.ff
2BB-	.
.	8dd
.	4e
8AA	8cc
8BB-	8dd
=17	=17
2C	4a
.	4g
2FF	2f
==	==
*-	*-
!!!RWG: This file only contains pitch and duration data.
!!!RWG: Transposing instruments are not transposed.
!!!RWG: Durations of rests and tied notes may be interpreted.
!!!RWG: Key is interpreted using the Humdrum key tool.
!!!SCA: 
!!!YOR: 
!!!AGN: violin
!!!AFT: stage1
!!!ENC: F. Bennion
!!!END: 1997/04/15
!!!AST: baroque
!!!YEC: Copyright 1994, Center for Computer Assisted Research in the Humanities
!!!YEM: Rights to all derivative electronic formats reserved.
!!!YEM: Refer to licensing agreement for further details.
!!!YEN: United States of America
!!!EED: W.B. Hewlett
!!!KEY: 238352244
!!!EMD: Converted from MuseData to Humdrum Aug 9, 1999, by Bret Aarden using muse2kern.
!!!VTS: 2937555959
